X: 24873
T: Magic Potion, The
R: jig
M: 6/8
K: Dmajor
|:afd ede|fed BdB|Ade f3|afd efg|
afd ede|fed BdB|Ade f3|edc d3:|
|:FDD ADD|BAF AFE|D3 ABc|d>DD FED|
FDD ADD|BAG AFD|G3 F3|EFED3:|
|:agf g3|f3 efe|df/g/d BdB|Adf efg|
[1 aAA gAA|f3 efe|df/g/d BdB|ABc d3:|
[2 aAA gAA|fAA eAA|D3 BdB|ABc d3||

